X: 36580
T: Shady Road To Clamper, The
R: polka
M: 2/4
K: Amajor
|:A>B ce|ae fe|A>B ce|fc e2|
AB ce|ae fe|fa/f/ ef|EF A2:|
|:c>e cB|ce fe|c>d ce|c/B/A B2|
c>e cB|ce fe|fa/f/ ef|EF A2:|

